Catalina-light/actions/16/format-font-size-more.svg

<svg xmlns="http://www.w3.org/2000/svg" width="16" height="16" viewBox="0 0 16 16">
 <defs>
  <style id="current-color-scheme" type="text/css">
   .ColorScheme-Text { color:#5c616c; } .ColorScheme-Highlight { color:#5294e2; }
  </style>
 </defs>
 <path style="fill:currentColor" class="ColorScheme-Text" d="M 12.5 0.09375 L 12.292969 0.30078125 L 9 3.59375 L 9.7070312 4.3007812 L 12 2.0078125 L 12 6.3007812 L 13 6.3007812 L 13 2.0078125 L 15.292969 4.3007812 L 16 3.59375 L 12.707031 0.30078125 L 12.5 0.09375 z M 6 1 L 1 15 L 3.5 15 L 4.5625 12 L 9.4375 12 L 10.5 15 L 13.28125 15 L 8 1 L 6 1 z M 7 5 L 8.75 10 L 5.25 10 L 7 5 z"/>
</svg>

<svg width="16" height="16" viewBox="0 0 16 16" xmlns="http://www.w3.org/2000/svg">
<defs>
<style id="current-color-scheme" type="text/css">.ColorScheme-Text { color:#5c616c; } .ColorScheme-Highlight { color:#5294e2; }</style>
</defs>
<path class="ColorScheme-Text" d="m12.5 0.09375-3.5 3.5 0.70703 0.70703 2.293-2.293v4.293h1v-4.293l2.293 2.293 0.70703-0.70703-3.5-3.5zm-6.5 0.90625-5 14h2.5l1.0625-3h4.875l1.0625 3h2.7812l-5.2812-14h-2zm1 4 1.75 5h-3.5l1.75-5z" fill="#363636"/>
</svg>
